X:1
T:The Legacy Jig
M:6/8
L:1/8
R:jig
K:G
GFG BAB | gfg d2B | GFG BAB | d2B G2B |
GFG BAB | gfg d2B | c2c B2A | GFG B2G :|
